ES1T1/16/aimg/fresa.svg

<svg clip-rule="evenodd" fill-rule="evenodd" stroke-linejoin="round" stroke-miterlimit="2" viewBox="0 0 158 206" xmlns="http://www.w3.org/2000/svg"><g fill-rule="nonzero" transform="translate(-216 -166)"><path d="m306 215.06c18.84 3.93 35.42 12.55 49.62 24.92 8.86 7.72 13.7 18.49 11.87 30.95-1.26 8.63-3.5 17.01-8.02 24.61-.22.37-.54.73-.62 1.14-1.45 7.04-5.92 12.39-9.85 18.09-3.32 4.81-5.97 10.1-9.47 14.76-3.87 5.16-8.44 9.8-12.59 14.76-9.27 11.1-21.94 16.7-35.09 21.21-7.93 2.72-15.93 1.43-23.16-3.01-10.1-6.21-18.37-14.47-25.87-23.56-10.58-12.83-16.96-27.64-20.52-43.76-4.65-21.02-2.12-40.93 9.13-59.54 4.9-8.1 11.92-13.73 20.37-17.65 3.54-1.64 7.23-3.14 11.01-4 3.52-.79 7.25-.78 10.89-.88 4.52-.12 9.07-.23 13.57.08 6.26.43 12.49 1.24 18.73 1.88zm-49.01 61.47c3.55-4.21 2.01-8.25 2.22-11.98.04-.77-1.54-1.63-2.37-2.44-.84.87-2.31 1.67-2.41 2.62-.31 2.97-.28 6.01.02 8.99.1.9 1.48 1.68 2.54 2.81zm9.45-39.44c3.06-5.37 3.49-7.49 2.74-12.49-3.73.29-4 .22-4.47 2.11-.84 3.41-2.44 7.08 1.73 10.38zm83.24 43.22c4.67.48 4.74-3.28 6.23-5.24 1.21-1.6 1.7-3.81 2.23-5.83.12-.47-.86-1.69-1.44-1.77-.93-.12-2.58.18-2.81.75-1.54 3.87-2.78 7.86-4.21 12.09zm-71.44 65.16c2.16-4 4.07-6.8 5.21-9.89.88-2.37-.8-3.52-3.54-3.36-2.13 3.53-4.88 6.97-1.67 13.25zm43.95-31.54c5.95-1.46 8.64-4.25 9.99-9.74-2.41-1.07-4.53-1.07-5.95 1.54-1.31 2.4-2.43 4.91-4.04 8.2zm-25.33 36.3c.4.37.81.74 1.21 1.11 3.17-1.25 5.07-4.22 7.29-6.61.49-.53-.19-2.99-1.04-3.72-1.45-1.24-3.46-.94-4.35.98-1.22 2.66-2.09 5.49-3.11 8.24zm44.19-97.41c2.02-3.95 4.69-6.56 3.11-10.37-.33-.8-1.47-1.72-2.27-1.75-.87-.04-2.56.92-2.55 1.39.12 3.2-1.2 6.67 1.71 10.73zm-89.99 66.33c.03-1.73-.16-2.86.11-3.87.51-1.9.56-3.56-1.72-4.06-2.14-.47-4.02 1.36-4.06 3.91-.02 1.27.03 2.72.61 3.78.51.94 1.8 1.98 2.76 1.99.87.01 1.76-1.31 2.3-1.75zm49.4-6.83c4.98-1.39 6.71-4.32 7.95-7.47.28-.72-.81-2.66-1.66-2.97-.87-.31-2.89.38-3.24 1.16-1.18 2.61-1.85 5.46-3.05 9.28zm13.21-37.65c4.94-1.37 4.74-5.13 6.5-7.36 1.02-1.29.5-3.28-1.38-3.49-1.12-.12-3.15.83-3.46 1.74-.86 2.58-1.04 5.39-1.66 9.11zm-74.42-26.5c3.86-3.45 4.1-4.34 2.35-8.87-5.21 1.74-5.94 4.51-2.35 8.87zm33.94 49.28c3.55-3.15 2.59-6.88 3.82-10-5.69-.93-6.51 1.14-3.82 10zm23.3-51.17c3.84-1.43 3.99-4.23 4.35-6.55.13-.82-1.6-2.6-2.62-2.72-.86-.1-2.7 1.52-2.75 2.46-.12 2.14.59 4.32 1.02 6.81zm-60.66 40.93c.64-1.89.98-2.67 1.17-3.49.51-2.19.85-4.44-1.69-5.63-.62-.29-2.23.04-2.28.29-.38 2-.78 4.09-.55 6.08.1.84 1.73 1.48 3.35 2.75z" fill="#b71c32"/><path d="m349.86 259.03c-1.77 19.14-5.34 38.57-14.89 55.26-9.55 16.68-26 30.34-45.11 32.44-17.93 1.97-35.26-6.11-51.48-13.99 11.27 17.46 25.55 34.88 45.67 34.83 13.14-.04 28.5-10.51 38.61-18.9 15.14-12.56 27.86-28.03 37.26-45.3 8.75-16.07 14.54-35.98 6.4-52.37-6.21-12.51-19.16-20.45-31.11-26.72 11.92 9.84 16.12 18.89 14.65 34.75z" fill="#9a2d35"/><path d="m262.96 209.29c-12.29-4.84-22.5-12.52-32.95-21.14.97-1.08 2.03-2.6 3.41-3.74 9.92-8.17 20.88-8.16 32.48-4.26 8.73 2.94 16.05 8.12 23.28 14.06-.28-19.19-.28-19.19 4.44-27.51 11.56 7.24 13.72 18.69 13.71 32.27 4.37-4.48 7.7-8.25 11.42-11.61 4.01-3.62 8.19-7.11 12.63-10.16 4.22-2.91 8.89-5.18 13.87-8.02 3.81 12.94-2.46 23.11-9.24 34.37 12.82-2.38 24.6-.74 37.08.87-6.18 13.2-17.47 16.94-29.61 19.57 4.98 3.84 9.87 7.39 14.5 11.24 9.34 7.77 14.2 18.03 15.04 29.96.59 8.37-2.66 16.13-5.55 23.88-6.44 17.29-17.09 32.19-27.14 47.35-5.99 9.03-13.94 16.64-22.67 23.2-2.41 1.81-5.09 3.51-7.92 4.45-8 2.66-16.07 5.22-24.26 7.19-5.68 1.37-11.26-.14-16.2-3.31-21.83-14.02-38.24-32.26-46.86-57.34-4.47-13.01-6.21-26.2-6.11-39.64.08-11.16 3.42-21.78 8.53-31.82 3.8-7.46 8.32-14.44 15.3-19.02 5.75-3.77 12.33-6.3 18.57-9.31 1.34-.67 2.83-1.03 4.25-1.53zm43.04 5.77c-6.24-.64-12.47-1.45-18.72-1.87-4.51-.3-9.05-.2-13.57-.08-3.64.1-7.37.08-10.89.88-3.78.85-7.47 2.36-11.01 4-8.45 3.92-15.46 9.55-20.37 17.65-11.26 18.6-13.78 38.51-9.13 59.54 3.56 16.12 9.95 30.94 20.52 43.76 7.49 9.09 15.77 17.35 25.87 23.56 7.22 4.44 15.23 5.73 23.16 3.01 13.14-4.51 25.81-10.11 35.08-21.21 4.15-4.96 8.71-9.6 12.59-14.76 3.5-4.66 6.15-9.95 9.47-14.76 3.93-5.7 8.4-11.05 9.85-18.09.08-.41.4-.77.62-1.14 4.52-7.6 6.75-15.98 8.02-24.61 1.83-12.46-3.01-23.24-11.87-30.95-14.2-12.38-30.79-21-49.62-24.93zm-16.17-7.82c-2.85-12.09-12.58-17.54-22.41-21.48-9.87-3.96-20.72-6.26-30.85.93 8.81 13.44 36.95 24.33 53.26 20.55zm52.84-30.72c-15.71 4.79-34.15 23.17-34.37 33.52 5.62 2.51 5.54 2.35 12.35-.87 13.56-6.42 18.81-18.28 22.02-32.65zm21.85 31.08c-14.92-2.19-28.41-1.75-41.22 6.74 14.24 7.74 33.84 4.78 41.22-6.74zm-67.1.89c3.4 0 4.43-1.94 4.63-3.77.8-7.33 1.48-14.78-1.22-21.85-1.18-3.1-2.8-6.35-7.29-7.71-1.52 11.65.45 22.44 3.88 33.33z" fill="#252723"/><g fill="#81b167"><path d="m289.83 207.24c-16.3 3.78-44.44-7.11-53.26-20.56 10.13-7.19 20.98-4.88 30.85-.93 9.82 3.95 19.55 9.4 22.41 21.49z"/><path d="m342.67 176.52c-3.21 14.37-8.46 26.23-22.01 32.65-6.81 3.22-6.74 3.38-12.35.87.21-10.35 18.65-28.73 34.36-33.52z"/><path d="m364.52 207.6c-7.38 11.52-26.98 14.48-41.22 6.74 12.81-8.49 26.3-8.93 41.22-6.74z"/><path d="m297.42 208.49c-3.43-10.89-5.4-21.67-3.88-33.33 4.49 1.37 6.11 4.62 7.29 7.71 2.7 7.08 2.02 14.52 1.22 21.85-.2 1.82-1.24 3.76-4.63 3.77z"/></g><g fill="#252723"><path d="m256.99 276.53c-1.07-1.13-2.45-1.91-2.54-2.82-.3-2.98-.33-6.02-.02-8.99.1-.95 1.57-1.75 2.41-2.62.83.82 2.42 1.68 2.37 2.44-.21 3.74 1.33 7.78-2.22 11.99z"/><path d="m266.44 237.09c-4.18-3.29-2.57-6.97-1.73-10.38.46-1.89.74-1.82 4.47-2.11.76 5 .33 7.12-2.74 12.49z"/><path d="m349.68 280.31c1.43-4.23 2.68-8.22 4.22-12.09.23-.57 1.88-.87 2.81-.75.58.07 1.56 1.3 1.44 1.77-.52 2.02-1.01 4.23-2.23 5.83-1.5 1.96-1.58 5.72-6.24 5.24z"/><path d="m278.24 345.47c-3.21-6.28-.46-9.71 1.67-13.25 2.74-.16 4.41.99 3.54 3.36-1.14 3.09-3.05 5.89-5.21 9.89z"/><path d="m322.19 313.93c1.61-3.3 2.73-5.8 4.04-8.21 1.43-2.61 3.54-2.6 5.95-1.54-1.35 5.51-4.04 8.29-9.99 9.75z"/><path d="m296.86 350.23c1.02-2.75 1.89-5.58 3.12-8.24.89-1.92 2.9-2.22 4.35-.98.86.73 1.53 3.19 1.04 3.72-2.22 2.39-4.13 5.35-7.29 6.61-.41-.37-.82-.74-1.22-1.11z"/><path d="m341.05 252.82c-2.91-4.06-1.59-7.52-1.71-10.74-.02-.47 1.68-1.43 2.55-1.39.81.04 1.94.95 2.27 1.75 1.58 3.82-1.1 6.43-3.11 10.38z"/><path d="m251.06 319.15c-.54.45-1.43 1.76-2.3 1.75-.96-.01-2.25-1.05-2.76-1.99-.58-1.06-.63-2.51-.61-3.78.04-2.54 1.92-4.38 4.06-3.91 2.28.5 2.23 2.16 1.72 4.06-.27 1-.08 2.14-.11 3.87z"/><path d="m300.46 312.32c1.2-3.82 1.87-6.67 3.05-9.28.35-.78 2.36-1.47 3.24-1.16.85.3 1.94 2.24 1.66 2.97-1.23 3.15-2.97 6.07-7.95 7.47z"/><path d="m313.67 274.67c.62-3.72.8-6.52 1.67-9.11.3-.91 2.33-1.87 3.46-1.74 1.88.21 2.4 2.2 1.38 3.49-1.77 2.22-1.57 5.99-6.51 7.36z"/><path d="m239.25 248.17c-3.59-4.36-2.86-7.12 2.35-8.87 1.75 4.53 1.52 5.42-2.35 8.87z"/><path d="m273.19 297.45c-2.69-8.85-1.87-10.93 3.82-10-1.23 3.11-.27 6.85-3.82 10z"/><path d="m296.49 246.28c-.43-2.49-1.14-4.68-1.02-6.81.05-.94 1.89-2.56 2.75-2.46 1.02.12 2.74 1.9 2.62 2.72-.35 2.32-.51 5.12-4.35 6.55z"/><path d="m235.83 287.21c-1.61-1.27-3.25-1.92-3.34-2.75-.24-1.99.17-4.07.55-6.08.05-.25 1.66-.58 2.28-.29 2.54 1.19 2.2 3.44 1.69 5.63-.2.82-.54 1.6-1.18 3.49z"/></g><path d="m227.41 280.45c.95-1.83 1.89-3.67 2.84-5.5 5.36-2.65 12.78 1.46 13.37 7.42 1.51-3.77 1.37-7.97 1.53-12.03s.74-8.37 3.34-11.49 7.86-4.31 10.74-1.45c1.26 1.26 1.86 3.03 2.96 4.44s3.15 2.43 4.63 1.43c1.43-3.67 3.57-7.91 7.48-8.33 3.25-.35 6.02 2.18 9.07 3.37s7.84-.53 7.01-3.69c-5.46-3.29-8.06-10.65-5.88-16.64s8.91-9.95 15.21-8.95c3.17.5 6.31 2.33 7.52 5.3 2.07-.63 2.98-3.26 2.4-5.35-.58-2.08-2.24-3.68-3.95-5.01-6.77-5.23-15.53-7.81-24.06-7.09-1.6.14-3.28.42-4.53 1.43-1.85 1.5-2.25 4.12-2.51 6.49-.63 5.65-1.26 11.3-1.89 16.95-.52 4.64-1.46 9.97-5.52 12.28-3.97 2.26-9.36.25-12.01-3.48-2.65-3.72-3.07-8.61-2.6-13.15.47-4.51 1.82-9.11 4.88-12.45 3.07-3.34 8.14-5.11 12.32-3.35 1.61-2.57-2.42-5.06-5.45-4.99-9.95.22-19.16 8.24-20.75 18.06-1.2 7.45 1.56 15.17.11 22.58-.57 2.91-2.22 6.05-5.13 6.59-5.02.93-7.48-6.06-6.95-11.14 1-9.54 5.37-17.77 11.11-25.23-17.59 2.46-21.74 40.26-15.29 52.98z" fill="#fff" fill-opacity=".36"/></g></svg>

<?xml version="1.0" encoding="UTF-8" standalone="no"?>
<!DOCTYPE svg PUBLIC "-//W3C//DTD SVG 1.1//EN" "http://www.w3.org/Graphics/SVG/1.1/DTD/svg11.dtd">
<svg width="100%" height="100%" viewBox="0 0 158 206" version="1.1" xmlns="http://www.w3.org/2000/svg" xmlns:xlink="http://www.w3.org/1999/xlink" xml:space="preserve" xmlns:serif="http://www.serif.com/" style="fill-rule:evenodd;clip-rule:evenodd;stroke-linejoin:round;stroke-miterlimit:2;">
    <g transform="matrix(1,0,0,1,-216,-166)">
        <g id="Capa_1">
            <g>
                <path d="M306,215.06C324.84,218.99 341.42,227.61 355.62,239.98C364.48,247.7 369.32,258.47 367.49,270.93C366.23,279.56 363.99,287.94 359.47,295.54C359.25,295.91 358.93,296.27 358.85,296.68C357.4,303.72 352.93,309.07 349,314.77C345.68,319.58 343.03,324.87 339.53,329.53C335.66,334.69 331.09,339.33 326.94,344.29C317.67,355.39 305,360.99 291.85,365.5C283.92,368.22 275.92,366.93 268.69,362.49C258.59,356.28 250.32,348.02 242.82,338.93C232.24,326.1 225.86,311.29 222.3,295.17C217.65,274.15 220.18,254.24 231.43,235.63C236.33,227.53 243.35,221.9 251.8,217.98C255.34,216.34 259.03,214.84 262.81,213.98C266.33,213.19 270.06,213.2 273.7,213.1C278.22,212.98 282.77,212.87 287.27,213.18C293.53,213.61 299.76,214.42 306,215.06ZM256.99,276.53C260.54,272.32 259,268.28 259.21,264.55C259.25,263.78 257.67,262.92 256.84,262.11C256,262.98 254.53,263.78 254.43,264.73C254.12,267.7 254.15,270.74 254.45,273.72C254.55,274.62 255.93,275.4 256.99,276.53ZM266.44,237.09C269.5,231.72 269.93,229.6 269.18,224.6C265.45,224.89 265.18,224.82 264.71,226.71C263.87,230.12 262.27,233.79 266.44,237.09ZM349.68,280.31C354.35,280.79 354.42,277.03 355.91,275.07C357.12,273.47 357.61,271.26 358.14,269.24C358.26,268.77 357.28,267.55 356.7,267.47C355.77,267.35 354.12,267.65 353.89,268.22C352.35,272.09 351.11,276.08 349.68,280.31ZM278.24,345.47C280.4,341.47 282.31,338.67 283.45,335.58C284.33,333.21 282.65,332.06 279.91,332.22C277.78,335.75 275.03,339.19 278.24,345.47ZM322.19,313.93C328.14,312.47 330.83,309.68 332.18,304.19C329.77,303.12 327.65,303.12 326.23,305.73C324.92,308.13 323.8,310.64 322.19,313.93ZM296.86,350.23C297.26,350.6 297.67,350.97 298.07,351.34C301.24,350.09 303.14,347.12 305.36,344.73C305.85,344.2 305.17,341.74 304.32,341.01C302.87,339.77 300.86,340.07 299.97,341.99C298.75,344.65 297.88,347.48 296.86,350.23ZM341.05,252.82C343.07,248.87 345.74,246.26 344.16,242.45C343.83,241.65 342.69,240.73 341.89,240.7C341.02,240.66 339.33,241.62 339.34,242.09C339.46,245.29 338.14,248.76 341.05,252.82ZM251.06,319.15C251.09,317.42 250.9,316.29 251.17,315.28C251.68,313.38 251.73,311.72 249.45,311.22C247.31,310.75 245.43,312.58 245.39,315.13C245.37,316.4 245.42,317.85 246,318.91C246.51,319.85 247.8,320.89 248.76,320.9C249.63,320.91 250.52,319.59 251.06,319.15ZM300.46,312.32C305.44,310.93 307.17,308 308.41,304.85C308.69,304.13 307.6,302.19 306.75,301.88C305.88,301.57 303.86,302.26 303.51,303.04C302.33,305.65 301.66,308.5 300.46,312.32ZM313.67,274.67C318.61,273.3 318.41,269.54 320.17,267.31C321.19,266.02 320.67,264.03 318.79,263.82C317.67,263.7 315.64,264.65 315.33,265.56C314.47,268.14 314.29,270.95 313.67,274.67ZM239.25,248.17C243.11,244.72 243.35,243.83 241.6,239.3C236.39,241.04 235.66,243.81 239.25,248.17ZM273.19,297.45C276.74,294.3 275.78,290.57 277.01,287.45C271.32,286.52 270.5,288.59 273.19,297.45ZM296.49,246.28C300.33,244.85 300.48,242.05 300.84,239.73C300.97,238.91 299.24,237.13 298.22,237.01C297.36,236.91 295.52,238.53 295.47,239.47C295.35,241.61 296.06,243.79 296.49,246.28ZM235.83,287.21C236.47,285.32 236.81,284.54 237,283.72C237.51,281.53 237.85,279.28 235.31,278.09C234.69,277.8 233.08,278.13 233.03,278.38C232.65,280.38 232.25,282.47 232.48,284.46C232.58,285.3 234.21,285.94 235.83,287.21Z" style="fill:rgb(183,28,50);fill-rule:nonzero;"/>
                <path d="M349.86,259.03C348.09,278.17 344.52,297.6 334.97,314.29C325.42,330.97 308.97,344.63 289.86,346.73C271.93,348.7 254.6,340.62 238.38,332.74C249.65,350.2 263.93,367.62 284.05,367.57C297.19,367.53 312.55,357.06 322.66,348.67C337.8,336.11 350.52,320.64 359.92,303.37C368.67,287.3 374.46,267.39 366.32,251C360.11,238.49 347.16,230.55 335.21,224.28C347.13,234.12 351.33,243.17 349.86,259.03Z" style="fill:rgb(154,45,53);fill-rule:nonzero;"/>
                <path d="M262.96,209.29C250.67,204.45 240.46,196.77 230.01,188.15C230.98,187.07 232.04,185.55 233.42,184.41C243.34,176.24 254.3,176.25 265.9,180.15C274.63,183.09 281.95,188.27 289.18,194.21C288.9,175.02 288.9,175.02 293.62,166.7C305.18,173.94 307.34,185.39 307.33,198.97C311.7,194.49 315.03,190.72 318.75,187.36C322.76,183.74 326.94,180.25 331.38,177.2C335.6,174.29 340.27,172.02 345.25,169.18C349.06,182.12 342.79,192.29 336.01,203.55C348.83,201.17 360.61,202.81 373.09,204.42C366.91,217.62 355.62,221.36 343.48,223.99C348.46,227.83 353.35,231.38 357.98,235.23C367.32,243 372.18,253.26 373.02,265.19C373.61,273.56 370.36,281.32 367.47,289.07C361.03,306.36 350.38,321.26 340.33,336.42C334.34,345.45 326.39,353.06 317.66,359.62C315.25,361.43 312.57,363.13 309.74,364.07C301.74,366.73 293.67,369.29 285.48,371.26C279.8,372.63 274.22,371.12 269.28,367.95C247.45,353.93 231.04,335.69 222.42,310.61C217.95,297.6 216.21,284.41 216.31,270.97C216.39,259.81 219.73,249.19 224.84,239.15C228.64,231.69 233.16,224.71 240.14,220.13C245.89,216.36 252.47,213.83 258.71,210.82C260.05,210.15 261.54,209.79 262.96,209.29ZM306,215.06C299.76,214.42 293.53,213.61 287.28,213.19C282.77,212.89 278.23,212.99 273.71,213.11C270.07,213.21 266.34,213.19 262.82,213.99C259.04,214.84 255.35,216.35 251.81,217.99C243.36,221.91 236.35,227.54 231.44,235.64C220.18,254.24 217.66,274.15 222.31,295.18C225.87,311.3 232.26,326.12 242.83,338.94C250.32,348.03 258.6,356.29 268.7,362.5C275.92,366.94 283.93,368.23 291.86,365.51C305,361 317.67,355.4 326.94,344.3C331.09,339.34 335.65,334.7 339.53,329.54C343.03,324.88 345.68,319.59 349,314.78C352.93,309.08 357.4,303.73 358.85,296.69C358.93,296.28 359.25,295.92 359.47,295.55C363.99,287.95 366.22,279.57 367.49,270.94C369.32,258.48 364.48,247.7 355.62,239.99C341.42,227.61 324.83,218.99 306,215.06ZM289.83,207.24C286.98,195.15 277.25,189.7 267.42,185.76C257.55,181.8 246.7,179.5 236.57,186.69C245.38,200.13 273.52,211.02 289.83,207.24ZM342.67,176.52C326.96,181.31 308.52,199.69 308.3,210.04C313.92,212.55 313.84,212.39 320.65,209.17C334.21,202.75 339.46,190.89 342.67,176.52ZM364.52,207.6C349.6,205.41 336.11,205.85 323.3,214.34C337.54,222.08 357.14,219.12 364.52,207.6ZM297.42,208.49C300.82,208.49 301.85,206.55 302.05,204.72C302.85,197.39 303.53,189.94 300.83,182.87C299.65,179.77 298.03,176.52 293.54,175.16C292.02,186.81 293.99,197.6 297.42,208.49Z" style="fill:rgb(37,39,35);fill-rule:nonzero;"/>
                <path d="M289.83,207.24C273.53,211.02 245.39,200.13 236.57,186.68C246.7,179.49 257.55,181.8 267.42,185.75C277.24,189.7 286.97,195.15 289.83,207.24Z" style="fill:rgb(129,177,103);fill-rule:nonzero;"/>
                <path d="M342.67,176.52C339.46,190.89 334.21,202.75 320.66,209.17C313.85,212.39 313.92,212.55 308.31,210.04C308.52,199.69 326.96,181.31 342.67,176.52Z" style="fill:rgb(129,177,103);fill-rule:nonzero;"/>
                <path d="M364.52,207.6C357.14,219.12 337.54,222.08 323.3,214.34C336.11,205.85 349.6,205.41 364.52,207.6Z" style="fill:rgb(129,177,103);fill-rule:nonzero;"/>
                <path d="M297.42,208.49C293.99,197.6 292.02,186.82 293.54,175.16C298.03,176.53 299.65,179.78 300.83,182.87C303.53,189.95 302.85,197.39 302.05,204.72C301.85,206.54 300.81,208.48 297.42,208.49Z" style="fill:rgb(129,177,103);fill-rule:nonzero;"/>
                <path d="M256.99,276.53C255.92,275.4 254.54,274.62 254.45,273.71C254.15,270.73 254.12,267.69 254.43,264.72C254.53,263.77 256,262.97 256.84,262.1C257.67,262.92 259.26,263.78 259.21,264.54C259,268.28 260.54,272.32 256.99,276.53Z" style="fill:rgb(37,39,35);fill-rule:nonzero;"/>
                <path d="M266.44,237.09C262.26,233.8 263.87,230.12 264.71,226.71C265.17,224.82 265.45,224.89 269.18,224.6C269.94,229.6 269.51,231.72 266.44,237.09Z" style="fill:rgb(37,39,35);fill-rule:nonzero;"/>
                <path d="M349.68,280.31C351.11,276.08 352.36,272.09 353.9,268.22C354.13,267.65 355.78,267.35 356.71,267.47C357.29,267.54 358.27,268.77 358.15,269.24C357.63,271.26 357.14,273.47 355.92,275.07C354.42,277.03 354.34,280.79 349.68,280.31Z" style="fill:rgb(37,39,35);fill-rule:nonzero;"/>
                <path d="M278.24,345.47C275.03,339.19 277.78,335.76 279.91,332.22C282.65,332.06 284.32,333.21 283.45,335.58C282.31,338.67 280.4,341.47 278.24,345.47Z" style="fill:rgb(37,39,35);fill-rule:nonzero;"/>
                <path d="M322.19,313.93C323.8,310.63 324.92,308.13 326.23,305.72C327.66,303.11 329.77,303.12 332.18,304.18C330.83,309.69 328.14,312.47 322.19,313.93Z" style="fill:rgb(37,39,35);fill-rule:nonzero;"/>
                <path d="M296.86,350.23C297.88,347.48 298.75,344.65 299.98,341.99C300.87,340.07 302.88,339.77 304.33,341.01C305.19,341.74 305.86,344.2 305.37,344.73C303.15,347.12 301.24,350.08 298.08,351.34C297.67,350.97 297.26,350.6 296.86,350.23Z" style="fill:rgb(37,39,35);fill-rule:nonzero;"/>
                <path d="M341.05,252.82C338.14,248.76 339.46,245.3 339.34,242.08C339.32,241.61 341.02,240.65 341.89,240.69C342.7,240.73 343.83,241.64 344.16,242.44C345.74,246.26 343.06,248.87 341.05,252.82Z" style="fill:rgb(37,39,35);fill-rule:nonzero;"/>
                <path d="M251.06,319.15C250.52,319.6 249.63,320.91 248.76,320.9C247.8,320.89 246.51,319.85 246,318.91C245.42,317.85 245.37,316.4 245.39,315.13C245.43,312.59 247.31,310.75 249.45,311.22C251.73,311.72 251.68,313.38 251.17,315.28C250.9,316.28 251.09,317.42 251.06,319.15Z" style="fill:rgb(37,39,35);fill-rule:nonzero;"/>
                <path d="M300.46,312.32C301.66,308.5 302.33,305.65 303.51,303.04C303.86,302.26 305.87,301.57 306.75,301.88C307.6,302.18 308.69,304.12 308.41,304.85C307.18,308 305.44,310.92 300.46,312.32Z" style="fill:rgb(37,39,35);fill-rule:nonzero;"/>
                <path d="M313.67,274.67C314.29,270.95 314.47,268.15 315.34,265.56C315.64,264.65 317.67,263.69 318.8,263.82C320.68,264.03 321.2,266.02 320.18,267.31C318.41,269.53 318.61,273.3 313.67,274.67Z" style="fill:rgb(37,39,35);fill-rule:nonzero;"/>
                <path d="M239.25,248.17C235.66,243.81 236.39,241.05 241.6,239.3C243.35,243.83 243.12,244.72 239.25,248.17Z" style="fill:rgb(37,39,35);fill-rule:nonzero;"/>
                <path d="M273.19,297.45C270.5,288.6 271.32,286.52 277.01,287.45C275.78,290.56 276.74,294.3 273.19,297.45Z" style="fill:rgb(37,39,35);fill-rule:nonzero;"/>
                <path d="M296.49,246.28C296.06,243.79 295.35,241.6 295.47,239.47C295.52,238.53 297.36,236.91 298.22,237.01C299.24,237.13 300.96,238.91 300.84,239.73C300.49,242.05 300.33,244.85 296.49,246.28Z" style="fill:rgb(37,39,35);fill-rule:nonzero;"/>
                <path d="M235.83,287.21C234.22,285.94 232.58,285.29 232.49,284.46C232.25,282.47 232.66,280.39 233.04,278.38C233.09,278.13 234.7,277.8 235.32,278.09C237.86,279.28 237.52,281.53 237.01,283.72C236.81,284.54 236.47,285.32 235.83,287.21Z" style="fill:rgb(37,39,35);fill-rule:nonzero;"/>
                <path d="M227.41,280.45C228.36,278.62 229.3,276.78 230.25,274.95C235.61,272.3 243.03,276.41 243.62,282.37C245.13,278.6 244.99,274.4 245.15,270.34C245.31,266.28 245.89,261.97 248.49,258.85C251.09,255.73 256.35,254.54 259.23,257.4C260.49,258.66 261.09,260.43 262.19,261.84C263.29,263.25 265.34,264.27 266.82,263.27C268.25,259.6 270.39,255.36 274.3,254.94C277.55,254.59 280.32,257.12 283.37,258.31C286.42,259.5 291.21,257.78 290.38,254.62C284.92,251.33 282.32,243.97 284.5,237.98C286.68,231.99 293.41,228.03 299.71,229.03C302.88,229.53 306.02,231.36 307.23,234.33C309.3,233.7 310.21,231.07 309.63,228.98C309.05,226.9 307.39,225.3 305.68,223.97C298.91,218.74 290.15,216.16 281.62,216.88C280.02,217.02 278.34,217.3 277.09,218.31C275.24,219.81 274.84,222.43 274.58,224.8C273.95,230.45 273.32,236.1 272.69,241.75C272.17,246.39 271.23,251.72 267.17,254.03C263.2,256.29 257.81,254.28 255.16,250.55C252.51,246.83 252.09,241.94 252.56,237.4C253.03,232.89 254.38,228.29 257.44,224.95C260.51,221.61 265.58,219.84 269.76,221.6C271.37,219.03 267.34,216.54 264.31,216.61C254.36,216.83 245.15,224.85 243.56,234.67C242.36,242.12 245.12,249.84 243.67,257.25C243.1,260.16 241.45,263.3 238.54,263.84C233.52,264.77 231.06,257.78 231.59,252.7C232.59,243.16 236.96,234.93 242.7,227.47C225.11,229.93 220.96,267.73 227.41,280.45Z" style="fill:white;fill-opacity:0.36;fill-rule:nonzero;"/>
            </g>
        </g>
    </g>
</svg>
